picto/ramp-up-right.svg

<svg class="color-immutable" width="24" height="24" viewBox="0 0 24 24" fill="none" xmlns="http://www.w3.org/2000/svg"><path d="M0 22.5V1.5C0 0.675 0.675 0 1.5 0H22.5C23.325 0 24 0.675 24 1.5V22.5C24 23.325 23.325 24 22.5 24H1.5C0.675 24 0 23.325 0 22.5Z" fill="#2D327D"/><path d="M6.24602 5.627C5.52102 5.627 4.93402 5.039 4.93402 4.314C4.93402 3.589 5.52202 3.001 6.24602 3.001C6.97102 3.001 7.55802 3.589 7.55802 4.314C7.55802 5.039 6.97102 5.627 6.24602 5.627Z" fill="white"/><path d="M20.999 21H6.67401V20.337L20.999 18V21Z" fill="white"/><path d="M4.94902 16.21V8.513L4.12502 9.563V12.376C4.12502 12.645 3.90602 12.864 3.63702 12.864C3.36802 12.864 3.14902 12.646 3.14902 12.376V9.181C3.14902 9.013 3.20502 8.85 3.30902 8.718L4.89502 6.7C5.17902 6.338 5.61402 6.127 6.07402 6.127C6.90202 6.127 7.57402 6.799 7.57402 7.627V12.673L9.11602 14.216C9.25702 14.356 9.33602 14.547 9.33602 14.746V18.656C9.33602 19.039 9.02502 19.35 8.64302 19.35C8.26002 19.35 7.94902 19.039 7.94902 18.656V15.222L6.44902 13.722V16.224C6.44902 16.372 6.40502 16.517 6.32302 16.64L3.94702 20.316C3.81902 20.514 3.60002 20.633 3.36402 20.633C2.98102 20.633 2.67102 20.322 2.67102 19.939C2.67102 19.806 2.71002 19.675 2.78202 19.563L4.94902 16.21Z" fill="white"/><path d="M9.28 11.545C9.221 11.545 9.163 11.535 9.108 11.515L8.211 11.19V10.113L9.452 10.562C9.652 10.634 9.786 10.825 9.786 11.038C9.787 11.318 9.56 11.545 9.28 11.545Z" fill="white"/></svg>

<svg class="color-immutable" width="24" height="24" viewBox="0 0 24 24" fill="none" xmlns="http://www.w3.org/2000/svg"><g clip-path="url(#a)"><path d="M0 22.5v-21C0 .675.675 0 1.5 0h21c.825 0 1.5.675 1.5 1.5v21c0 .825-.675 1.5-1.5 1.5h-21C.675 24 0 23.325 0 22.5Z" fill="#2D327D"/><path d="M6.246 5.627a1.312 1.312 0 1 1 0-2.625 1.312 1.312 0 0 1 0 2.625ZM20.999 21H6.674v-.663L20.999 18v3ZM4.949 16.21V8.513l-.824 1.05v2.813a.489.489 0 0 1-.976 0V9.181c0-.168.056-.331.16-.463L4.895 6.7a1.498 1.498 0 0 1 2.679.927v5.046l1.542 1.543c.141.14.22.331.22.53v3.91a.694.694 0 0 1-1.387 0v-3.434l-1.5-1.5v2.502a.75.75 0 0 1-.126.416l-2.376 3.676a.693.693 0 1 1-1.165-.753l2.167-3.353Z" fill="#fff"/><path d="M9.28 11.545a.502.502 0 0 1-.172-.03l-.897-.325v-1.077l1.241.449a.506.506 0 0 1-.172.983Z" fill="#fff"/></g><defs><clipPath id="a"><path fill="#fff" d="M0 0h24v24H0z"/></clipPath></defs></svg>
